resources/themes/lulzbot/icons/category_material.svg

<?xml version="1.0" encoding="UTF-8" standalone="no"?>
<svg
   xmlns:dc="http://purl.org/dc/elements/1.1/"
   xmlns:cc="http://creativecommons.org/ns#"
   xmlns:rdf="http://www.w3.org/1999/02/22-rdf-syntax-ns#"
   xmlns:svg="http://www.w3.org/2000/svg"
   xmlns="http://www.w3.org/2000/svg"
   xmlns:sodipodi="http://sodipodi.sourceforge.net/DTD/sodipodi-0.dtd"
   xmlns:inkscape="http://www.inkscape.org/namespaces/inkscape"
   viewBox="0 0 30 30"
   id="svg2"
   version="1.1"
   inkscape:version="0.91 r"
   sodipodi:docname="category_material.svg">
  <metadata
     id="metadata14">
    <rdf:RDF>
      <cc:Work
         rdf:about="">
        <dc:format>image/svg+xml</dc:format>
        <dc:type
           rdf:resource="http://purl.org/dc/dcmitype/StillImage" />
      </cc:Work>
    </rdf:RDF>
  </metadata>
  <defs
     id="defs12" />
  <sodipodi:namedview
     pagecolor="#ffffff"
     bordercolor="#666666"
     borderopacity="1"
     objecttolerance="10"
     gridtolerance="10"
     guidetolerance="10"
     inkscape:pageopacity="0"
     inkscape:pageshadow="2"
     inkscape:window-width="1609"
     inkscape:window-height="843"
     id="namedview10"
     showgrid="false"
     inkscape:zoom="6.3495341"
     inkscape:cx="-0.77683969"
     inkscape:cy="25.312876"
     inkscape:window-x="0"
     inkscape:window-y="31"
     inkscape:window-maximized="0"
     inkscape:current-layer="svg2" />
  <switch
     id="switch4"
     transform="matrix(0.90814888,0,0,0.90814888,1.5350291,2.3243583)">
    <g
       id="g6">
      <path
         d="m 2.995,1 2.675,0 0,24 -2.675,0 z M 24.325,1 27,1 27,25 24.325,25 Z M 8.992,3.284 c -0.368,0 -0.669,0.224 -0.669,0.5 l 0,18.433 c 0,0.276 0.3,0.5 0.669,0.5 0.369,0 0.669,-0.224 0.669,-0.5 l 0,-18.433 c 0,-0.276 -0.299,-0.5 -0.669,-0.5 m 4.003,0 c -0.368,0 -0.669,0.224 -0.669,0.5 l 0,18.433 c 0,0.276 0.3,0.5 0.669,0.5 0.371,0 0.669,-0.224 0.669,-0.5 l 0,-18.433 c 0,-0.276 -0.298,-0.5 -0.669,-0.5 m 4.004,0 c -0.371,0 -0.669,0.224 -0.669,0.5 l 0,24.451 c 0,0.277 0.298,0.5 0.669,0.5 0.368,0 0.669,-0.223 0.669,-0.5 l 0,-24.451 c 0,-0.276 -0.301,-0.5 -0.669,-0.5 m 4.003,0 c -0.368,0 -0.669,0.224 -0.669,0.5 l 0,18.433 c 0,0.276 0.3,0.5 0.669,0.5 0.37,0 0.669,-0.224 0.669,-0.5 l 0,-18.433 c -10e-4,-0.276 -0.3,-0.5 -0.669,-0.5"
         id="path8"
         inkscape:connector-curvature="0" />
    </g>
  </switch>
</svg>

<svg xmlns="http://www.w3.org/2000/svg" viewBox="0 0 30 30">
    <switch>
        <g>
            <path d="M2.995 1H5.67v24H2.995zm21.33 0H27v24h-2.675zM8.992 3.284c-.368 0-.669.224-.669.5v18.433c0 .276.3.5.669.5.369 0 .669-.224.669-.5V3.784c0-.276-.299-.5-.669-.5m4.003 0c-.368 0-.669.224-.669.5v18.433c0 .276.3.5.669.5.371 0 .669-.224.669-.5V3.784c0-.276-.298-.5-.669-.5m4.004 0c-.371 0-.669.224-.669.5v24.451c0 .277.298.5.669.5.368 0 .669-.223.669-.5V3.784c0-.276-.301-.5-.669-.5m4.003 0c-.368 0-.669.224-.669.5v18.433c0 .276.3.5.669.5.37 0 .669-.224.669-.5V3.784c-.001-.276-.3-.5-.669-.5"/>
        </g>
    </switch>
</svg>
